X: 24782
T: Maggie Brown's Favourite
R: jig
M: 6/8
K: Gmajor
|:g|dBG GAB|E3 E2 c|AFD DEF|G3 G2 g|
dBG Bcd|E3 E2 c|AFD DEF|G3 G2:|
|:g/a/|bgb afd|efg gfe|dBg dBG|AFD D2 g/a/|
bgb afd|efg gfe|faf ge^c|d3 de=f|
ece dBd|cac BgB|Ace dBG|F2 F DEF|
GAB EFG|ABc def|gdB cAF|G3 G2:|

